svg/openshift.svg

<?xml version="1.0" encoding="UTF-8"?>
<svg xmlns="http://www.w3.org/2000/svg" xmlns:xlink="http://www.w3.org/1999/xlink" width="34.132999" height="32" viewBox="0 0 34.132999 32">
<path fill-rule="nonzero" fill="rgb(85.882353%, 12.941176%, 18.431373%)" fill-opacity="1" d="M 9.914062 14.058594 L 4.4375 16.050781 C 4.507812 16.929688 4.664062 17.796875 4.871094 18.648438 L 10.078125 16.753906 C 9.90625 15.867188 9.851562 14.960938 9.917969 14.058594 M 34.132812 7.996094 C 33.753906 7.203125 33.304688 6.441406 32.796875 5.726562 L 27.316406 7.722656 C 27.945312 8.371094 28.488281 9.097656 28.925781 9.890625 Z M 22.074219 6.445312 C 23.179688 6.964844 24.183594 7.675781 25.035156 8.554688 L 30.515625 6.558594 C 28.953125 4.359375 26.84375 2.601562 24.394531 1.46875 C 16.5625 -2.183594 7.214844 1.214844 3.5625 9.046875 C 2.421875 11.492188 1.933594 14.191406 2.148438 16.882812 L 7.628906 14.890625 C 7.71875 13.703125 8.007812 12.507812 8.539062 11.371094 C 10.914062 6.28125 16.984375 4.070312 22.078125 6.445312 "/>
<path fill-rule="nonzero" fill="rgb(91.764706%, 13.333333%, 15.294118%)" fill-opacity="1" d="M 5.207031 18.519531 L 0 20.421875 C 0.480469 22.328125 1.3125 24.125 2.449219 25.726562 L 7.917969 23.738281 C 6.523438 22.300781 5.582031 20.488281 5.207031 18.523438 "/>
<path fill-rule="nonzero" fill="rgb(85.882353%, 12.941176%, 18.431373%)" fill-opacity="1" d="M 27.917969 16.460938 C 27.828125 17.679688 27.515625 18.871094 27 19.980469 C 24.625 25.070312 18.554688 27.277344 13.457031 24.902344 C 12.347656 24.386719 11.34375 23.675781 10.492188 22.796875 L 5.023438 24.789062 C 6.585938 26.988281 8.691406 28.746094 11.136719 29.882812 C 18.972656 33.535156 28.316406 30.132812 31.96875 22.300781 C 33.113281 19.859375 33.597656 17.15625 33.378906 14.46875 Z M 27.917969 16.460938 "/>
<path fill-rule="nonzero" fill="rgb(91.764706%, 13.333333%, 15.294118%)" fill-opacity="1" d="M 29.265625 9.769531 L 24.058594 11.664062 C 25.039062 13.410156 25.480469 15.402344 25.332031 17.398438 L 30.800781 15.410156 C 30.644531 13.449219 30.125 11.539062 29.265625 9.769531 "/>
</svg>

<svg role="img" viewBox="0 0 34.133 32" xmlns="http://www.w3.org/2000/svg"><path d="M9.914 14.059 4.438 16.05c.07.879.226 1.746.433 2.597l5.207-1.894a10.2 10.2 0 0 1-.16-2.695m24.215-6.063a15.4 15.4 0 0 0-1.336-2.27l-5.48 1.997a10.2 10.2 0 0 1 1.609 2.168Zm-12.059-1.55a10.1 10.1 0 0 1 2.961 2.109l5.48-1.996a15.5 15.5 0 0 0-6.12-5.09c-7.832-3.653-17.18-.254-20.832 7.578a15.6 15.6 0 0 0-1.415 7.836l5.48-1.992c.09-1.188.38-2.383.911-3.52 2.375-5.09 8.445-7.3 13.54-4.926" fill="rgb(85.882354%, 12.941177%, 18.431373%)"/><path d="M5.207 18.52 0 20.422a15.9 15.9 0 0 0 2.45 5.305l5.468-1.989a10.25 10.25 0 0 1-2.711-5.215" fill="rgb(91.764706%, 13.333334%, 15.294118%)"/><path d="M27.918 16.46A10.1 10.1 0 0 1 27 19.98c-2.375 5.09-8.445 7.297-13.543 4.922a10 10 0 0 1-2.965-2.105l-5.469 1.992a15.54 15.54 0 0 0 6.114 5.094c7.836 3.652 17.18.25 20.832-7.582a15.5 15.5 0 0 0 1.41-7.832Zm0 0" fill="rgb(85.882354%, 12.941177%, 18.431373%)"/><path d="m29.266 9.77-5.207 1.894a10.16 10.16 0 0 1 1.273 5.734l5.469-1.988a15.8 15.8 0 0 0-1.535-5.64" fill="rgb(91.764706%, 13.333334%, 15.294118%)"/></svg>
